www/assets/icons/sports_cricket.svg

<svg width="24" height="24" viewBox="0 0 24 24" xmlns="http://www.w3.org/2000/svg" fill='currentColor'><path d="M15.0362 12.8105L6.54623 4.32049C6.15623 3.93049 5.52623 3.93049 5.13623 4.32049L2.30623 7.15049C1.91623 7.54049 1.91623 8.17049 2.30623 8.56049L10.7962 17.0505C11.1862 17.4405 11.8162 17.4405 12.2062 17.0505L15.0362 14.2205C15.4262 13.8305 15.4262 13.2005 15.0362 12.8105Z"/><path d="M15.7416 16.3425L14.3274 17.7567L18.57 21.9993L19.9842 20.5851L15.7416 16.3425Z"/><path d="M18.4862 9.00049C20.4192 9.00049 21.9862 7.43349 21.9862 5.50049C21.9862 3.56749 20.4192 2.00049 18.4862 2.00049C16.5532 2.00049 14.9862 3.56749 14.9862 5.50049C14.9862 7.43349 16.5532 9.00049 18.4862 9.00049Z"/></svg>

<svg xmlns="http://www.w3.org/2000/svg" width="24" height="24" viewBox="0 0 24 24" fill='currentColor'><path d="m15.036 12.81-8.49-8.49a.996.996 0 0 0-1.41 0l-2.83 2.83a.996.996 0 0 0 0 1.41l8.49 8.49c.39.39 1.02.39 1.41 0l2.83-2.83a.996.996 0 0 0 0-1.41m.706 3.533-1.415 1.414 4.243 4.242 1.414-1.414zM18.486 9a3.5 3.5 0 1 0 0-7 3.5 3.5 0 0 0 0 7"/></svg>
